packages/icons/svg/24/Move1.svg

<svg width="24" height="24" viewBox="0 0 24 24" fill="none" xmlns="http://www.w3.org/2000/svg">
<path fill-rule="evenodd" clip-rule="evenodd" d="M11.2929 0.292893C11.6834 -0.0976311 12.3166 -0.0976311 12.7071 0.292893L15.7071 3.29289C15.9931 3.57889 16.0787 4.00901 15.9239 4.38268C15.7691 4.75636 15.4045 5 15 5H9C8.59554 5 8.2309 4.75636 8.07612 4.38268C7.92134 4.00901 8.0069 3.57889 8.29289 3.29289L11.2929 0.292893ZM4.38268 8.07612C4.75636 8.2309 5 8.59554 5 9V15C5 15.4045 4.75636 15.7691 4.38268 15.9239C4.00901 16.0787 3.57889 15.9931 3.29289 15.7071L0.292893 12.7071C-0.0976311 12.3166 -0.0976311 11.6834 0.292893 11.2929L3.29289 8.29289C3.57889 8.0069 4.00901 7.92134 4.38268 8.07612ZM19.6173 8.07612C19.991 7.92134 20.4211 8.0069 20.7071 8.29289L23.7071 11.2929C24.0976 11.6834 24.0976 12.3166 23.7071 12.7071L20.7071 15.7071C20.4211 15.9931 19.991 16.0787 19.6173 15.9239C19.2436 15.7691 19 15.4045 19 15V9C19 8.59554 19.2436 8.2309 19.6173 8.07612ZM8.07612 19.6173C8.2309 19.2436 8.59554 19 9 19H15C15.4045 19 15.7691 19.2436 15.9239 19.6173C16.0787 19.991 15.9931 20.4211 15.7071 20.7071L12.7071 23.7071C12.3166 24.0976 11.6834 24.0976 11.2929 23.7071L8.29289 20.7071C8.0069 20.4211 7.92134 19.991 8.07612 19.6173Z" fill="#858585"/>
</svg>

<svg width="24" height="24" fill="none" xmlns="http://www.w3.org/2000/svg" viewBox="0 0 24 24"><path fill-rule="evenodd" clip-rule="evenodd" d="M11.293.293a1 1 0 011.414 0l3 3A1 1 0 0115 5H9a1 1 0 01-.707-1.707l3-3zm-6.91 7.783A1 1 0 015 9v6a1 1 0 01-1.707.707l-3-3a1 1 0 010-1.414l3-3a1 1 0 011.09-.217zm15.234 0a1 1 0 011.09.217l3 3a1 1 0 010 1.414l-3 3A1 1 0 0119 15V9a1 1 0 01.617-.924zM8.077 19.617A1 1 0 019 19h6a1 1 0 01.707 1.707l-3 3a1 1 0 01-1.414 0l-3-3a1 1 0 01-.217-1.09z" fill="currentColor"></path></svg>
